brandFactory_export/2.Regular/Documento_Archivo AVI_2Regular.svg

<?xml version="1.0" encoding="UTF-8"?>
<svg width="24px" height="24px" viewBox="0 0 24 24" version="1.1" xmlns="http://www.w3.org/2000/svg" xmlns:xlink="http://www.w3.org/1999/xlink">
    <title>2.Regular/Documento_Archivo AVI_2Regular</title>
    <g id="Symbols" stroke="none" stroke-width="1" fill="none" fill-rule="evenodd">
        <g id="2.Regular/Documento_Archivo-AVI_2Regular" fill="#5CB615" fill-rule="nonzero">
            <path d="M16.2084034,-2.66453526e-13 C16.487395,-2.66453526e-13 16.7462185,0.104201681 16.9445378,0.295798319 L23.3008403,6.44705882 C23.4386555,6.57815126 23.5159664,6.7394958 23.5663866,6.91092437 C23.6033613,6.99831933 23.6235294,7.09579832 23.6235294,7.19663866 L23.6235294,21.9630252 C23.6235294,22.8638655 22.8504202,23.6235294 21.9327731,23.6235294 L7.31428571,23.6235294 C6.41344538,23.6235294 5.62689076,22.8470588 5.62689076,21.9630252 L5.66722689,18.6386555 L2.90756303,18.6386555 C1.30084034,18.6352941 2.19149143e-10,17.3310924 2.19149143e-10,15.7277311 L2.19149143e-10,10.8168067 C2.19149143e-10,9.21008403 1.30084034,7.9092437 2.90420168,7.90588235 L5.62352941,7.90588235 L5.62352941,1.6605042 C5.62352941,0.789915966 6.4302521,-2.66453526e-13 7.31092437,-2.66453526e-13 L16.2084034,-2.66453526e-13 Z M15.1563025,1.45882353 L7.31428571,1.45882353 C7.2302521,1.45882353 7.08907563,1.59327731 7.08235294,1.66386555 L7.08235294,7.90588235 L14.7193277,7.90588235 C16.3226891,7.9092437 17.6235294,9.21008403 17.6235294,10.8168067 L17.6235294,15.7277311 C17.6235294,17.3344538 16.3226891,18.6352941 14.7193277,18.6386555 L7.12268908,18.6386555 L7.08235294,21.9731092 C7.08235294,22.0336134 7.2,22.1647059 7.31428571,22.1647059 L21.9327731,22.1647059 L21.9327731,22.1613445 C22.0504202,22.1613445 22.1647059,22.0470588 22.1647059,21.9596639 L22.1647059,8.24201681 L19.3882353,8.24201681 C18.1714286,8.24201681 17.1226891,7.84537815 16.3495798,7.09579832 C15.5697479,6.34285714 15.1563025,5.31092437 15.1563025,4.11764706 L15.1563025,1.45882353 Z M14.7193277,9.36470588 L2.90756303,9.36470588 C2.10756303,9.36470588 1.45882353,10.0134454 1.45882353,10.8168067 L1.45882353,15.7277311 C1.45882353,16.5277311 2.10756303,17.1798319 2.90756303,17.1798319 L14.7193277,17.1798319 C15.5193277,17.1798319 16.1680672,16.5277311 16.1680672,15.7277311 L16.1680672,10.8168067 C16.1680672,10.0168067 15.5193277,9.36470588 14.7193277,9.36470588 Z M6.16134454,11.2403361 L7.75798319,15.6605042 L6.6789916,15.6605042 L6.3092437,14.5478992 L4.87394958,14.5478992 L4.53109244,15.6605042 L3.56638655,15.6605042 L5.0487395,11.2403361 L6.16134454,11.2403361 Z M8.67563025,11.2403361 L9.71092437,14.4470588 L10.6756303,11.2403361 L11.6571429,11.2403361 L10.1882353,15.6605042 L9.13613445,15.6605042 L7.59663866,11.2403361 L8.67563025,11.2403361 Z M13.2369748,11.2403361 L13.2369748,15.6605042 L12.2285714,15.6605042 L12.2285714,11.2403361 L13.2369748,11.2403361 Z M5.57983193,12.3462185 L5.56638655,12.3462185 L5.10588235,13.8184874 L6.06386555,13.8184874 L5.57983193,12.3462185 Z M16.6151261,2.00336134 L16.6151261,4.1210084 C16.6151261,4.91092437 16.8739496,5.57647059 17.3647059,6.05042017 C17.8621849,6.53109244 18.5613445,6.78319328 19.3915966,6.78319328 L21.5529412,6.78319328 L16.6151261,2.00336134 Z" id="Documento_Archivo-AVI_2Regular"></path>
        </g>
    </g>
</svg>

<svg width="24" height="24" viewBox="0 0 24 24" xmlns="http://www.w3.org/2000/svg"><path d="M16.208 0c.28 0 .538.104.737.296L23.3 6.447c.138.131.215.292.265.464a.735.735 0 01.058.286v14.766c0 .9-.774 1.66-1.691 1.66H7.314c-.9 0-1.687-.776-1.687-1.66l.04-3.324h-2.76A2.914 2.914 0 010 15.728v-4.911a2.91 2.91 0 012.904-2.911h2.72V1.66C5.624.79 6.43 0 7.31 0h8.897zm-1.052 1.459H7.314c-.084 0-.225.134-.232.205v6.242h7.637a2.91 2.91 0 012.905 2.91v4.912a2.91 2.91 0 01-2.905 2.91H7.123l-.04 3.335c0 .06.117.192.231.192h14.619v-.004c.117 0 .232-.114.232-.201V8.242h-2.777c-1.217 0-2.265-.397-3.038-1.146-.78-.753-1.194-1.785-1.194-2.978v-2.66zm-.437 7.906H2.908c-.8 0-1.45.648-1.45 1.452v4.91c0 .8.65 1.453 1.45 1.453h11.811c.8 0 1.45-.652 1.45-1.452v-4.911c0-.8-.65-1.452-1.45-1.452zM6.161 11.24l1.597 4.42H6.679l-.37-1.112H4.874L4.53 15.66h-.965l1.483-4.42H6.16zm2.515 0l1.035 3.207.965-3.207h.981l-1.469 4.42H9.136l-1.54-4.42h1.08zm4.561 0v4.42h-1.008v-4.42h1.008zM5.58 12.346h-.014l-.46 1.472h.958l-.484-1.472zM16.615 2.003v2.118c0 .79.259 1.455.75 1.93.497.48 1.196.732 2.027.732h2.16l-4.937-4.78z" fill="#5CB615" fill-rule="nonzero"/></svg>
